X:295
T: Xiu he bao
N: C0699
O: China,Hubei, Yengcheng
S: MM,]
N: Notenbeilage kopiert. DOUBLETTE !!
N: Wenig Verzierungen.
R: Xiaodiao. Xin minge]
M: 2/4
L: 1/16
K: C
d4cdge | d3cc3A | d4cdge | d3cc2A2 |
G2G4A2 | d2d2cdA2 | A3cG2G2 | A8 |
d2A2d4 | d2g2A4 | A2A2GAc2 | A3GG2E2 |
D2DDG2G2 | A2G2F2E2 | D2D4C2 | D8 |
A2A4c2 | A3GG2E2 |
D2DDG2G2 | A2G2F2E2 | D2D4C2 | D6z2

@@@ Tune index: 6296
